X: 1
T:Maurice Lennon's
M:4/4
L:1/8
C:Maurice Lennon, Leitrim (fiddle)
R:Reel
D:From a radio broadcast
Z:Bernie Stocks
K:G
GBde dBB2 | ABcd BGFG | E2cE D2BD | dBB2 AFEF | GBde dBB2 | ABcd BGFG |\
E2cE D2BD | dBAB G4 :: g3d edBd | dgfd edBd | G3B dGBd |\
gedB A4 | d3e dBB2 | ABcd BGFG | E2cE D2BD | dBAB G4 :|
